X: 19887
T: Jig For Amélie
R: slip jig
M: 9/8
K: Edorian
DAc dcA A2 D|DAc dcA A2 D|Bdf fgd d zz|Bdf fgd BAG|
DAc dcA A2 D|DAc dB/c/d dee|Bdf fgd d zz|Bdf fgd dcA|
|:EAc dea a2 f|agf fga a3|bgf gfd d z d|bgf gfd dcA:|

